public/illustrations/dataservice.svg

<svg width="90" height="79" viewBox="0 0 90 79" fill="none" xmlns="http://www.w3.org/2000/svg">
<path d="M22.2136 23.4346C22.3786 22.1476 22.5316 20.9356 22.6936 19.7266C22.7746 19.1056 22.8436 18.4816 22.9636 17.8696C23.1496 16.9366 23.5636 16.5586 24.5476 16.5676C25.1991 16.5893 25.848 16.6605 26.4886 16.7806C30.9146 17.5186 35.3366 18.2626 39.7546 19.0126C40.1266 19.0726 40.5046 19.1146 40.9546 19.1776C41.2166 18.4116 41.4786 17.6476 41.7406 16.8856C41.9386 16.3186 42.1216 15.7486 42.3406 15.1936C42.6946 14.2936 43.1866 14.0326 44.1406 14.2216C45.3946 14.4706 46.6426 14.7346 47.9596 15.0076C48.0826 14.6836 48.2116 14.3896 48.3076 14.0896C49.0976 11.6336 49.8836 9.17561 50.6656 6.71561C50.7052 6.58517 50.7543 6.45783 50.8126 6.33461C51.1126 5.73461 51.6376 5.46761 52.2076 5.66261C52.4785 5.76645 52.6981 5.97194 52.8197 6.2353C52.9413 6.49866 52.9553 6.79909 52.8586 7.07261C52.6636 7.75061 52.4206 8.41661 52.2046 9.08861C51.5266 11.1886 50.8516 13.2676 50.1466 15.4516L52.3216 15.9376C53.0116 16.0906 53.7076 16.2376 54.3946 16.3876C55.4716 16.6396 55.7236 16.9606 55.7356 18.0856C55.7356 18.9856 55.7356 19.8856 55.7356 20.7856V21.6556L59.6356 22.3216C62.8516 22.8616 66.0706 23.3926 69.2836 23.9506C70.3606 24.1366 70.5736 24.6526 70.2466 25.7056C70.0822 26.3904 69.9679 27.0862 69.9046 27.7876C69.7666 28.7236 69.6286 29.6626 69.4786 30.6916L71.7226 31.1446C72.7876 31.3606 73.8586 31.5496 74.9176 31.7926C75.8176 32.0026 76.1176 32.3926 76.0216 33.2926C75.8086 35.0476 75.5476 36.7966 75.2866 38.5426C74.8246 41.6356 74.3416 44.7226 73.8736 47.8126C73.7056 48.9256 73.3186 49.3126 72.2086 49.2616C70.7086 49.2106 69.2086 49.1086 67.7086 49.0306L66.9076 48.9766C66.7726 49.8766 66.6256 50.7136 66.5116 51.5656C66.3406 52.8586 66.2116 54.1546 66.0316 55.4476C65.9386 56.1826 65.3146 56.5636 64.5316 56.4196C63.3856 56.2126 62.2366 56.0266 61.0306 55.8196C60.5566 58.0546 60.1036 60.1996 59.6266 62.4406L61.9156 62.8456C61.9966 62.8606 62.0806 62.8456 62.1616 62.8666C63.4726 63.0406 63.8836 63.5926 63.6616 64.9366C63.5326 65.7136 63.3616 66.4846 63.2116 67.2586C62.9116 68.8006 62.5876 70.3456 62.2636 71.8876C62.0086 73.0876 61.5046 73.4656 60.3106 73.2766C57.5446 72.8386 54.7816 72.3766 52.0186 71.9266L41.4736 70.2016C37.9576 69.6316 34.4386 69.0736 30.9256 68.5006C27.0576 67.8706 23.1936 67.2356 19.3336 66.5956C18.7696 66.5026 18.2026 66.4216 17.6476 66.2956C16.4986 66.0226 16.0246 65.2606 16.2496 64.1266C16.6576 62.0746 17.0416 60.0196 17.4826 57.9736C17.5983 57.5367 17.8026 57.1283 18.0826 56.7736C18.2734 56.5048 18.5454 56.3043 18.8586 56.2017C19.1719 56.0991 19.5098 56.0997 19.8226 56.2036C20.9566 56.4796 22.1056 56.7016 23.3746 56.9746C23.6746 54.8116 23.9746 52.7026 24.2566 50.5456C23.4076 50.3806 22.6066 50.2456 21.8236 50.0596C21.2216 49.9034 20.632 49.7029 20.0596 49.4596C19.3666 49.1596 19.1146 48.6196 19.2136 47.8726C19.3786 46.6336 19.5136 45.3886 19.6606 44.1466C19.6876 43.9036 19.7206 43.6636 19.7566 43.3876L16.0546 41.6746C15.6346 41.4796 15.2116 41.2936 14.7976 41.0746C13.9186 40.6306 13.7206 40.2946 13.8256 39.3226C14.0596 37.1846 14.3056 35.0486 14.5636 32.9146C14.8636 30.4006 15.1846 27.8896 15.4846 25.3756C15.6436 24.0466 16.0156 23.7016 17.3686 23.6476C18.9496 23.5816 20.5246 23.5096 22.2136 23.4346ZM67.9636 25.9006L24.9886 18.7186C23.7886 28.4356 22.5886 38.0836 21.3886 47.8756L63.9886 54.0826C65.3176 44.6386 66.6316 35.3326 67.9636 25.8916V25.9006ZM19.6156 58.1956C19.2106 60.2746 18.8236 62.2546 18.4156 64.2826L60.2236 71.0656C60.6376 69.0106 61.0306 67.0486 61.4416 65.0146C61.0846 64.9396 60.7756 64.8556 60.4606 64.8106C56.8606 64.3036 53.2426 63.8146 49.6366 63.2956C44.5366 62.5546 39.4036 61.8316 34.3006 61.0306C30.9136 60.4966 27.5446 59.8606 24.1756 59.2306C22.6996 58.9486 21.2206 58.5616 19.6156 58.1956ZM58.9156 55.5406L26.3656 50.7916C26.0656 53.0566 25.8046 55.2226 25.5346 57.3646C27.7786 58.1776 55.8346 61.9996 57.5236 62.0926C57.9796 59.9446 58.4356 57.7966 58.9126 55.5406H58.9156ZM71.8156 47.0806C72.4876 42.6016 73.1446 38.2126 73.8136 33.7486L69.1756 32.8486C68.5096 37.5796 67.8646 42.1636 67.2046 46.8286L71.8156 47.0806ZM19.9996 41.1196C20.8996 35.2336 21.9286 26.2936 21.7486 25.6396L17.6146 25.8346C17.0686 30.3736 16.5376 34.7896 16.0036 39.2356L19.9996 41.1196ZM53.5396 18.4186L44.2126 16.4626C43.8406 17.5306 43.5076 18.4906 43.1326 19.5586L53.5396 21.2986V18.4186Z" fill="#324980"/>
<path d="M67.9635 25.891C66.6315 35.323 65.3175 44.629 63.9855 54.073L21.3855 47.866C22.5855 38.074 23.7855 28.426 24.9855 18.709L67.9635 25.891ZM35.4195 42.391C35.4195 41.389 35.4555 40.468 35.4195 39.547C35.4237 39.4029 35.3983 39.2594 35.3451 39.1254C35.2918 38.9914 35.2117 38.8697 35.1098 38.7677C35.0078 38.6658 34.8861 38.5857 34.7521 38.5324C34.6181 38.4792 34.4746 38.4538 34.3305 38.458C34.1859 38.4566 34.0426 38.486 33.9102 38.5442C33.7778 38.6025 33.6592 38.6882 33.5625 38.7957C33.4657 38.9032 33.393 39.0301 33.349 39.1679C33.3051 39.3057 33.2909 39.4513 33.3075 39.595C33.3255 40.843 33.4065 42.094 33.4815 43.342C33.4917 43.5911 33.5865 43.8292 33.75 44.0173C33.9136 44.2054 34.1363 44.3323 34.3815 44.377C34.6713 44.45 34.9647 44.508 35.2605 44.551L45.8745 46.291C47.2665 46.519 48.6615 46.753 50.0565 46.972C50.8905 47.101 51.3855 46.9 51.6735 46.21C52.0695 45.259 52.4175 44.284 52.7295 43.303C52.8235 43.0441 52.8135 42.7588 52.7016 42.507C52.5897 42.2553 52.3847 42.0567 52.1295 41.953C51.8699 41.8641 51.5863 41.8766 51.3354 41.9878C51.0845 42.0991 50.8849 42.3009 50.7765 42.553C50.6719 42.7743 50.5807 43.0017 50.5035 43.234C50.3115 43.732 50.1225 44.23 49.9245 44.734L35.4195 42.391ZM43.3185 39.646V39.676H44.7075C45.8115 39.661 46.2075 39.307 46.3695 38.2C46.4625 37.552 46.5555 36.907 46.6455 36.259C46.9005 34.429 47.1825 32.599 47.3925 30.76C47.5035 29.815 47.1585 29.395 46.2345 29.197C45.1725 28.969 44.1015 28.762 43.0305 28.579C41.9595 28.396 41.4585 28.819 41.3235 29.905C41.1195 31.525 40.9095 33.142 40.7235 34.765C40.5945 35.818 40.4505 36.865 40.3695 37.927C40.2735 39.199 40.6695 39.619 41.9385 39.646C42.3915 39.64 42.8535 39.631 43.3185 39.631V39.646ZM35.5395 27.238C35.268 27.2465 35.0095 27.3561 34.8147 27.5454C34.6199 27.7346 34.5028 27.9899 34.4865 28.261C34.4901 28.5324 34.5975 28.7922 34.7866 28.9869C34.9758 29.1816 35.2323 29.2965 35.5035 29.308C35.7743 29.2928 36.0303 29.1798 36.224 28.9899C36.4177 28.8001 36.5358 28.5464 36.5565 28.276C36.5601 28.1398 36.5365 28.0042 36.4871 27.8771C36.4377 27.7501 36.3635 27.6342 36.2689 27.5362C36.1742 27.4382 36.0609 27.36 35.9357 27.3062C35.8105 27.2524 35.6758 27.2241 35.5395 27.223V27.238ZM54.8865 31.738C54.8931 31.5334 54.8381 31.3315 54.7286 31.1585C54.6192 30.9854 54.4604 30.8492 54.2727 30.7674C54.085 30.6856 53.8771 30.6621 53.6759 30.6997C53.4747 30.7374 53.2894 30.8345 53.1439 30.9786C52.9985 31.1227 52.8997 31.3071 52.8602 31.508C52.8208 31.7089 52.8425 31.917 52.9226 32.1054C53.0026 32.2938 53.1374 32.4539 53.3094 32.5649C53.4815 32.6759 53.6828 32.7327 53.8875 32.728C54.1486 32.7191 54.3967 32.6118 54.582 32.4276C54.7673 32.2435 54.8761 31.996 54.8865 31.735V31.738Z" fill="#CBCFDD"/>
<path d="M19.6157 58.1953C21.2207 58.5613 22.6937 58.9483 24.1877 59.2273C27.5567 59.8603 30.9257 60.4963 34.3127 61.0273C39.4127 61.8283 44.5337 62.5513 49.6487 63.2923C53.2487 63.8113 56.8637 64.3003 60.4727 64.8073C60.7727 64.8523 61.0967 64.9363 61.4538 65.0113C61.0427 67.0453 60.6497 69.0073 60.2357 71.0623L18.4277 64.2913C18.8237 62.2543 19.2107 60.2743 19.6157 58.1953Z" fill="#CBCFDD"/>
<path d="M58.9127 55.5418C58.4357 57.7978 57.9797 59.9458 57.5237 62.0998C55.8497 62.0068 27.7787 58.1848 25.5347 57.3718C25.8047 55.2298 26.0777 53.0638 26.3657 50.7988L58.9127 55.5418Z" fill="#979FBB"/>
<path d="M71.8005 47.0804L67.1895 46.8374C67.8495 42.1724 68.4944 37.5884 69.1604 32.8574L73.7984 33.7574C73.1294 38.2124 72.4725 42.6014 71.8005 47.0804Z" fill="#979FBB"/>
<path d="M19.9996 41.1206L16.0037 39.2366C16.5377 34.7906 17.0687 30.3746 17.6147 25.8356L21.7486 25.6406C21.9286 26.2946 20.8996 35.2346 19.9996 41.1206Z" fill="#979FBB"/>
<path d="M53.5396 18.4189V21.2989L43.1326 19.5589C43.5076 18.4909 43.8406 17.5309 44.2126 16.4629L53.5396 18.4189Z" fill="white"/>
<path d="M35.4195 42.392L49.8945 44.753C50.0925 44.237 50.2815 43.739 50.4735 43.253C50.5507 43.0207 50.6419 42.7933 50.7465 42.572C50.8549 42.3199 51.0545 42.1181 51.3054 42.0068C51.5562 41.8956 51.8399 41.8831 52.0995 41.972C52.3547 42.0757 52.5597 42.2743 52.6716 42.526C52.7835 42.7778 52.7935 43.0631 52.6995 43.322C52.3995 44.303 52.0395 45.278 51.6435 46.229C51.3435 46.919 50.8605 47.129 50.0265 46.991C48.6315 46.772 47.2365 46.538 45.8445 46.31L35.2305 44.57C34.9347 44.527 34.6413 44.469 34.3515 44.396C34.1063 44.3513 33.8835 44.2244 33.72 44.0363C33.5564 43.8482 33.4617 43.6101 33.4515 43.361C33.3765 42.113 33.2955 40.862 33.2775 39.614C33.2609 39.4703 33.2751 39.3247 33.319 39.1869C33.363 39.0491 33.4357 38.9222 33.5325 38.8147C33.6292 38.7072 33.7478 38.6215 33.8802 38.5632C34.0126 38.505 34.1559 38.4756 34.3005 38.477C34.4446 38.4729 34.5881 38.4982 34.7221 38.5515C34.8561 38.6047 34.9778 38.6848 35.0798 38.7867C35.1817 38.8887 35.2618 39.0104 35.315 39.1444C35.3683 39.2784 35.3936 39.4219 35.3895 39.566C35.4555 40.454 35.4195 41.375 35.4195 42.392Z" fill="#324980"/>
<path d="M43.3187 39.6327C42.8537 39.6327 42.3917 39.6327 41.9267 39.6327C40.6697 39.6057 40.2617 39.1857 40.3577 37.9137C40.4387 36.8577 40.5827 35.8137 40.7117 34.7517C40.9097 33.1287 41.1197 31.5117 41.3117 29.8917C41.4467 28.8057 41.9657 28.3917 43.0187 28.5657C44.0717 28.7397 45.1607 28.9557 46.2227 29.1837C47.1467 29.3817 47.4917 29.8017 47.3807 30.7467C47.1707 32.5857 46.8887 34.4157 46.6337 36.2457C46.5437 36.8937 46.4507 37.5387 46.3577 38.1867C46.1957 39.2937 45.7997 39.6477 44.6957 39.6627H43.3067L43.3187 39.6327ZM43.3757 30.8667C43.1087 33.1227 42.8567 35.2617 42.5957 37.4667H44.2577C44.5577 35.3667 44.9357 33.2907 45.1247 31.1667L43.3757 30.8667Z" fill="#324980"/>
<path d="M35.5396 27.2246C35.6746 27.2258 35.808 27.2536 35.9322 27.3064C36.0565 27.3593 36.169 27.4361 36.2635 27.5325C36.358 27.629 36.4325 27.7431 36.4828 27.8684C36.5331 27.9936 36.5581 28.1276 36.5565 28.2626C36.5359 28.533 36.4177 28.7867 36.2241 28.9766C36.0304 29.1664 35.7743 29.2794 35.5036 29.2946C35.2324 29.2831 34.9758 29.1682 34.7867 28.9735C34.5975 28.7788 34.4902 28.519 34.4866 28.2476C34.5029 27.9765 34.62 27.7213 34.8148 27.532C35.0096 27.3427 35.2681 27.2331 35.5396 27.2246Z" fill="#324980"/>
<path d="M54.8864 31.7363C54.8752 31.9968 54.766 32.2435 54.5808 32.4271C54.3956 32.6106 54.1479 32.7175 53.8873 32.7263C53.6133 32.7181 53.3526 32.606 53.1582 32.4127C52.9637 32.2194 52.8501 31.9593 52.8403 31.6853C52.8471 31.414 52.9614 31.1565 53.158 30.9694C53.3547 30.7823 53.6175 30.6811 53.8888 30.6878C54.1601 30.6946 54.4177 30.8088 54.6047 31.0055C54.7918 31.2021 54.8931 31.465 54.8864 31.7363Z" fill="#324980"/>
<path d="M43.3752 30.8652L45.1242 31.1652C44.9352 33.2652 44.5542 35.3412 44.2572 37.4652H42.5952C42.8562 35.2602 43.0992 33.1212 43.3752 30.8652Z" fill="white"/>
</svg>

<svg xmlns="http://www.w3.org/2000/svg" width="90" height="79" fill="none" viewBox="0 0 90 79"><path fill="#324980" d="M22.214 23.435c.165-1.287.318-2.5.48-3.708.08-.621.15-1.245.27-1.857.186-.933.6-1.311 1.584-1.302q.978.032 1.94.213 6.64 1.107 13.267 2.232c.372.06.75.102 1.2.165l.786-2.292c.198-.567.38-1.137.6-1.692.354-.9.846-1.161 1.8-.972 1.254.249 2.502.513 3.819.786.123-.324.252-.618.348-.918q1.185-3.684 2.358-7.374.06-.196.147-.381c.3-.6.825-.867 1.395-.672a1.113 1.113 0 0 1 .65 1.41c-.194.678-.437 1.344-.653 2.016-.678 2.1-1.353 4.179-2.058 6.363l2.175.486c.69.153 1.386.3 2.073.45 1.077.252 1.329.573 1.34 1.698v3.57l3.9.666c3.217.54 6.436 1.07 9.649 1.629 1.077.186 1.29.702.963 1.755q-.248 1.027-.342 2.082l-.426 2.904 2.244.453c1.065.216 2.136.405 3.195.648.9.21 1.2.6 1.104 1.5a192 192 0 0 1-.735 5.25c-.462 3.093-.945 6.18-1.413 9.27-.168 1.113-.555 1.5-1.665 1.449-1.5-.051-3-.153-4.5-.231l-.801-.054c-.135.9-.282 1.737-.396 2.589-.171 1.293-.3 2.589-.48 3.882-.093.735-.717 1.116-1.5.972-1.146-.207-2.295-.393-3.501-.6-.474 2.235-.927 4.38-1.404 6.62l2.289.406c.08.015.165 0 .246.02 1.31.175 1.722.727 1.5 2.07-.13.778-.3 1.549-.45 2.323-.3 1.542-.624 3.087-.948 4.629-.255 1.2-.76 1.578-1.953 1.389-2.766-.438-5.53-.9-8.292-1.35l-10.545-1.725c-3.516-.57-7.035-1.128-10.548-1.701q-5.802-.945-11.592-1.905c-.564-.093-1.131-.174-1.686-.3-1.15-.273-1.623-1.035-1.398-2.17.408-2.051.792-4.106 1.233-6.152a3.3 3.3 0 0 1 .6-1.2 1.54 1.54 0 0 1 1.74-.57c1.134.276 2.283.498 3.552.77.3-2.162.6-4.271.882-6.428-.85-.165-1.65-.3-2.433-.486a12.6 12.6 0 0 1-1.764-.6c-.693-.3-.945-.84-.846-1.587.165-1.24.3-2.484.447-3.726.027-.243.06-.483.096-.76l-3.702-1.712c-.42-.195-.843-.381-1.257-.6-.88-.444-1.077-.78-.972-1.752q.351-3.207.738-6.408c.3-2.514.62-5.025.92-7.54.16-1.328.532-1.673 1.885-1.727 1.58-.066 3.156-.138 4.845-.213m45.75 2.466-42.975-7.182c-1.2 9.717-2.4 19.365-3.6 29.157l42.6 6.207c1.329-9.444 2.643-18.75 3.975-28.191zM19.616 58.196c-.405 2.079-.792 4.059-1.2 6.087l41.808 6.783c.414-2.055.807-4.017 1.218-6.051-.357-.075-.666-.16-.981-.204-3.6-.507-7.218-.996-10.824-1.515-5.1-.741-10.233-1.464-15.336-2.265-3.387-.534-6.756-1.17-10.125-1.8-1.476-.282-2.955-.67-4.56-1.035m39.3-2.655-32.55-4.75c-.3 2.266-.561 4.432-.831 6.574 2.244.813 30.3 4.635 31.989 4.728.456-2.148.912-4.296 1.389-6.552zm12.9-8.46 1.998-13.332-4.638-.9c-.666 4.73-1.311 9.315-1.971 13.98zM20 41.12c.9-5.886 1.929-14.826 1.749-15.48l-4.134.195-1.611 13.4zm33.54-22.701-9.327-1.956c-.372 1.068-.705 2.028-1.08 3.096l10.407 1.74z"/><path fill="#cbcfdd" d="M67.964 25.891c-1.332 9.432-2.647 18.738-3.978 28.182l-42.6-6.207c1.2-9.792 2.4-19.44 3.6-29.157zm-32.544 16.5c0-1.002.035-1.923 0-2.844a1.06 1.06 0 0 0-1.09-1.089 1.02 1.02 0 0 0-1.023 1.137c.018 1.248.1 2.499.174 3.747a1.1 1.1 0 0 0 .9 1.035q.436.11.88.174l10.613 1.74c1.392.228 2.787.462 4.182.681.835.129 1.33-.072 1.617-.762.396-.951.744-1.926 1.056-2.907a1.065 1.065 0 0 0-.6-1.35 1.09 1.09 0 0 0-1.352.6 6 6 0 0 0-.273.681c-.192.498-.381.996-.58 1.5zm7.898-2.745v.03h1.39c1.104-.015 1.5-.369 1.662-1.476q.14-.97.276-1.941c.255-1.83.536-3.66.746-5.499.111-.945-.234-1.365-1.158-1.563a77 77 0 0 0-3.203-.618c-1.072-.183-1.572.24-1.707 1.326-.204 1.62-.414 3.237-.6 4.86-.13 1.053-.273 2.1-.354 3.162-.096 1.272.3 1.692 1.569 1.719.453-.006.914-.015 1.38-.015zM35.54 27.238a1.09 1.09 0 0 0-1.053 1.023 1.06 1.06 0 0 0 1.018 1.047 1.12 1.12 0 0 0 1.053-1.032 1.026 1.026 0 0 0-1.018-1.053zm19.347 4.5a1.022 1.022 0 1 0-.998.99 1.035 1.035 0 0 0 .999-.993zM19.616 58.195c1.605.366 3.078.753 4.572 1.032 3.369.633 6.738 1.27 10.125 1.8 5.1.801 10.22 1.524 15.336 2.265 3.6.52 7.215 1.008 10.824 1.515.3.045.624.13.98.204l-1.217 6.051-41.808-6.77c.396-2.038.783-4.018 1.188-6.097"/><path fill="#979fbb" d="M58.913 55.542c-.477 2.256-.933 4.404-1.39 6.558-1.673-.093-29.744-3.915-31.988-4.728l.83-6.573zM71.8 47.08l-4.61-.243c.66-4.665 1.304-9.249 1.97-13.98l4.638.9zM20 41.12l-3.996-1.883 1.61-13.401 4.135-.195c.18.654-.85 9.594-1.75 15.48"/><path fill="#fff" d="M53.54 18.419v2.88l-10.407-1.74c.375-1.068.708-2.028 1.08-3.096z"/><path fill="#324980" d="m35.42 42.392 14.474 2.361c.199-.516.388-1.014.58-1.5q.115-.349.273-.681a1.09 1.09 0 0 1 1.352-.6 1.065 1.065 0 0 1 .6 1.35c-.3.981-.66 1.956-1.055 2.907-.3.69-.783.9-1.617.762-1.395-.219-2.79-.453-4.183-.681L35.23 44.57a9 9 0 0 1-.878-.174 1.1 1.1 0 0 1-.9-1.035c-.075-1.248-.157-2.499-.174-3.747a1.02 1.02 0 0 1 1.023-1.137 1.06 1.06 0 0 1 1.088 1.089c.066.888.03 1.809.03 2.826M43.319 39.633h-1.392c-1.257-.027-1.665-.447-1.57-1.72.082-1.055.226-2.1.355-3.161.198-1.623.408-3.24.6-4.86.135-1.086.654-1.5 1.707-1.326s2.142.39 3.204.618c.924.198 1.269.618 1.158 1.563-.21 1.839-.492 3.669-.747 5.499q-.136.97-.276 1.94c-.162 1.108-.558 1.462-1.662 1.477h-1.39zm.057-8.766-.78 6.6h1.662c.3-2.1.678-4.176.867-6.3zM35.54 27.225a1.027 1.027 0 0 1 1.017 1.038 1.12 1.12 0 0 1-1.053 1.032 1.06 1.06 0 0 1-1.017-1.047 1.09 1.09 0 0 1 1.053-1.023M54.886 31.736a1.035 1.035 0 0 1-.999.99 1.08 1.08 0 0 1-1.047-1.04 1.024 1.024 0 0 1 2.046.05"/><path fill="#fff" d="m43.375 30.865 1.75.3c-.19 2.1-.57 4.176-.868 6.3h-1.662c.261-2.205.504-4.344.78-6.6"/></svg>
